public/images/deliver-steps.svg

<svg width="1216" height="378" viewBox="0 0 1216 378" fill="none" xmlns="http://www.w3.org/2000/svg">
<path d="M82.9507 92H1115.43C1128.69 92 1139.43 102.745 1139.43 116V325C1139.43 338.255 1128.69 349 1115.43 349H211.478" stroke="#B6D4F7" stroke-width="24"/>
<rect x="580" y="66" width="56" height="56" rx="28" fill="#1574E5"/>
<rect x="592" y="78" width="32" height="32" rx="16" fill="#E8F1FC"/>
<path d="M615.716 88.3017L606.961 101.431C606.752 101.737 606.441 101.938 606.097 101.988C605.753 102.038 605.405 101.933 605.132 101.697L598.88 96.1731C598.328 95.6853 598.239 94.7955 598.68 94.1859C599.122 93.5762 599.927 93.4775 600.479 93.9654L605.692 98.5746L613.657 86.6296C613.918 86.1965 614.373 85.9571 614.842 86.0064C615.311 86.0556 615.717 86.3856 615.9 86.8654C616.082 87.3451 616.012 87.8969 615.716 88.3017Z" fill="#093160"/>
<rect x="1094.11" y="66" width="56" height="56" rx="28" fill="#1574E5"/>
<rect x="1106.11" y="78" width="32" height="32" rx="16" fill="#E8F1FC"/>
<path d="M1129.83 88.3017L1121.07 101.431C1120.86 101.737 1120.55 101.938 1120.21 101.988C1119.86 102.038 1119.52 101.933 1119.24 101.697L1112.99 96.1731C1112.44 95.6853 1112.35 94.7955 1112.79 94.1859C1113.23 93.5762 1114.04 93.4775 1114.59 93.9654L1119.8 98.5746L1127.77 86.6296C1128.03 86.1965 1128.48 85.9571 1128.95 86.0064C1129.42 86.0556 1129.83 86.3856 1130.01 86.8654C1130.19 87.3451 1130.12 87.8969 1129.83 88.3017Z" fill="#093160"/>
<rect x="456.031" y="322" width="56" height="56" rx="28" fill="#1574E5"/>
<rect x="468.031" y="334" width="32" height="32" rx="16" fill="#E8F1FC"/>
<path d="M491.747 344.302L482.992 357.431C482.783 357.737 482.472 357.938 482.128 357.988C481.784 358.038 481.436 357.933 481.163 357.697L474.911 352.173C474.36 351.685 474.27 350.796 474.712 350.186C475.153 349.576 475.958 349.477 476.51 349.965L481.723 354.575L489.688 342.63C489.949 342.197 490.404 341.957 490.873 342.006C491.342 342.056 491.748 342.386 491.931 342.865C492.114 343.345 492.043 343.897 491.747 344.302Z" fill="#093160"/>
<rect x="713.086" y="317" width="56" height="56" rx="28" fill="#1574E5"/>
<rect x="725.086" y="329" width="32" height="32" rx="16" fill="#E8F1FC"/>
<path d="M748.802 339.302L740.047 352.431C739.838 352.737 739.527 352.938 739.183 352.988C738.839 353.038 738.491 352.933 738.218 352.697L731.966 347.173C731.414 346.685 731.325 345.796 731.766 345.186C732.208 344.576 733.013 344.477 733.565 344.965L738.778 349.575L746.742 337.63C747.004 337.197 747.459 336.957 747.928 337.006C748.397 337.056 748.803 337.386 748.986 337.865C749.168 338.345 749.098 338.897 748.802 339.302Z" fill="#093160"/>
<rect x="969.975" y="322" width="56" height="56" rx="28" fill="#1574E5"/>
<rect x="981.975" y="334" width="32" height="32" rx="16" fill="#E8F1FC"/>
<path d="M1005.69 344.302L996.936 357.431C996.727 357.737 996.416 357.938 996.072 357.988C995.728 358.038 995.38 357.933 995.107 357.697L988.855 352.173C988.303 351.685 988.214 350.796 988.656 350.186C989.097 349.576 989.902 349.477 990.454 349.965L995.667 354.575L1003.63 342.63C1003.89 342.197 1004.35 341.957 1004.82 342.006C1005.29 342.056 1005.69 342.386 1005.87 342.865C1006.06 343.345 1005.99 343.897 1005.69 344.302Z" fill="#093160"/>
<rect x="65.8892" y="61" width="56" height="56" rx="28" fill="#1574E5"/>
<rect x="77.8892" y="73" width="32" height="32" rx="16" fill="#E8F1FC"/>
<path d="M101.605 83.3017L92.85 96.4311C92.6412 96.7372 92.3298 96.9378 91.9859 96.9878C91.642 97.0378 91.2943 96.9329 91.021 96.6968L84.7691 91.1731C84.2174 90.6853 84.1281 89.7955 84.5696 89.1859C85.0111 88.5762 85.8162 88.4775 86.3679 88.9654L91.5812 93.5746L99.5457 81.6296C99.8068 81.1965 100.262 80.9571 100.731 81.0064C101.2 81.0556 101.606 81.3856 101.789 81.8654C101.972 82.3451 101.901 82.8969 101.605 83.3017Z" fill="#093160"/>
<rect x="322.944" y="61" width="56" height="56" rx="28" fill="#1574E5"/>
<rect x="334.944" y="73" width="32" height="32" rx="16" fill="#E8F1FC"/>
<path d="M358.66 83.3017L349.905 96.4311C349.696 96.7372 349.385 96.9378 349.041 96.9878C348.697 97.0378 348.349 96.9329 348.076 96.6968L341.824 91.1731C341.273 90.6853 341.183 89.7955 341.625 89.1859C342.066 88.5762 342.871 88.4775 343.423 88.9654L348.636 93.5746L356.601 81.6296C356.862 81.1965 357.317 80.9571 357.786 81.0064C358.255 81.0556 358.662 81.3856 358.844 81.8654C359.027 82.3451 358.956 82.8969 358.66 83.3017Z" fill="#093160"/>
<rect x="199.142" y="317" width="56" height="56" rx="28" fill="#1574E5"/>
<rect x="211.142" y="329" width="32" height="32" rx="16" fill="#E8F1FC"/>
<path d="M234.857 339.302L226.102 352.431C225.894 352.737 225.582 352.938 225.238 352.988C224.894 353.038 224.547 352.933 224.273 352.697L218.022 347.173C217.47 346.685 217.381 345.796 217.822 345.186C218.264 344.576 219.069 344.477 219.62 344.965L224.834 349.575L232.798 337.63C233.059 337.197 233.515 336.957 233.984 337.006C234.452 337.056 234.859 337.386 235.041 337.865C235.224 338.345 235.153 338.897 234.857 339.302Z" fill="#093160"/>
<rect x="837.056" y="61" width="56" height="56" rx="28" fill="#1574E5"/>
<rect x="849.056" y="73" width="32" height="32" rx="16" fill="#E8F1FC"/>
<path d="M872.771 83.3017L864.016 96.4311C863.808 96.7372 863.496 96.9378 863.152 96.9878C862.808 97.0378 862.461 96.9329 862.187 96.6968L855.936 91.1731C855.384 90.6853 855.295 89.7955 855.736 89.1859C856.178 88.5762 856.983 88.4775 857.534 88.9654L862.748 93.5746L870.712 81.6296C870.973 81.1965 871.429 80.9571 871.898 81.0064C872.366 81.0556 872.773 81.3856 872.955 81.8654C873.138 82.3451 873.067 82.8969 872.771 83.3017Z" fill="#093160"/>
</svg>

<svg xmlns="http://www.w3.org/2000/svg" width="1216" height="378" fill="none"><path stroke="#B6D4F7" stroke-width="24" d="M82.95 92h1032.48c13.26 0 24 10.745 24 24v209c0 13.255-10.74 24-24 24H211.478"/><rect width="56" height="56" x="580" y="66" fill="#1574E5" rx="28"/><rect width="32" height="32" x="592" y="78" fill="#E8F1FC" rx="16"/><path fill="#093160" d="m615.716 88.302-8.755 13.129c-.209.306-.52.507-.864.557a1.2 1.2 0 0 1-.965-.291l-6.252-5.524c-.552-.488-.641-1.377-.2-1.987.442-.61 1.247-.709 1.799-.22l5.213 4.609 7.965-11.945c.261-.433.716-.673 1.185-.624s.875.38 1.058.86c.182.48.112 1.03-.184 1.436"/><rect width="56" height="56" x="1094.11" y="66" fill="#1574E5" rx="28"/><rect width="32" height="32" x="1106.11" y="78" fill="#E8F1FC" rx="16"/><path fill="#093160" d="m1129.83 88.302-8.76 13.129c-.21.306-.52.507-.86.557-.35.05-.69-.055-.97-.291l-6.25-5.524c-.55-.488-.64-1.377-.2-1.987s1.25-.709 1.8-.22l5.21 4.609 7.97-11.945c.26-.433.71-.673 1.18-.624s.88.38 1.06.86.11 1.03-.18 1.436"/><rect width="56" height="56" x="456.031" y="322" fill="#1574E5" rx="28"/><rect width="32" height="32" x="468.031" y="334" fill="#E8F1FC" rx="16"/><path fill="#093160" d="m491.747 344.302-8.755 13.129c-.209.306-.52.507-.864.557a1.2 1.2 0 0 1-.965-.291l-6.252-5.524c-.551-.488-.641-1.377-.199-1.987.441-.61 1.246-.709 1.798-.221l5.213 4.61 7.965-11.945c.261-.433.716-.673 1.185-.624s.875.38 1.058.859c.183.48.112 1.032-.184 1.437"/><rect width="56" height="56" x="713.086" y="317" fill="#1574E5" rx="28"/><rect width="32" height="32" x="725.086" y="329" fill="#E8F1FC" rx="16"/><path fill="#093160" d="m748.802 339.302-8.755 13.129c-.209.306-.52.507-.864.557a1.2 1.2 0 0 1-.965-.291l-6.252-5.524c-.552-.488-.641-1.377-.2-1.987.442-.61 1.247-.709 1.799-.221l5.213 4.61 7.964-11.945c.262-.433.717-.673 1.186-.624s.875.38 1.058.859c.182.48.112 1.032-.184 1.437"/><rect width="56" height="56" x="969.975" y="322" fill="#1574E5" rx="28"/><rect width="32" height="32" x="981.975" y="334" fill="#E8F1FC" rx="16"/><path fill="#093160" d="m1005.69 344.302-8.754 13.129c-.209.306-.52.507-.864.557a1.2 1.2 0 0 1-.965-.291l-6.252-5.524c-.552-.488-.641-1.377-.199-1.987.441-.61 1.246-.709 1.798-.221l5.213 4.61 7.963-11.945c.26-.433.72-.673 1.19-.624s.87.38 1.05.859c.19.48.12 1.032-.18 1.437"/><rect width="56" height="56" x="65.889" y="61" fill="#1574E5" rx="28"/><rect width="32" height="32" x="77.889" y="73" fill="#E8F1FC" rx="16"/><path fill="#093160" d="m101.605 83.302-8.755 13.13c-.209.305-.52.506-.864.556a1.2 1.2 0 0 1-.965-.291l-6.252-5.524c-.552-.488-.64-1.377-.2-1.987.442-.61 1.247-.709 1.799-.22l5.213 4.609 7.965-11.945c.26-.433.716-.673 1.185-.624s.875.38 1.058.86.112 1.03-.184 1.436"/><rect width="56" height="56" x="322.944" y="61" fill="#1574E5" rx="28"/><rect width="32" height="32" x="334.944" y="73" fill="#E8F1FC" rx="16"/><path fill="#093160" d="m358.66 83.302-8.755 13.13c-.209.305-.52.506-.864.556a1.2 1.2 0 0 1-.965-.291l-6.252-5.524c-.551-.488-.641-1.377-.199-1.987.441-.61 1.246-.709 1.798-.22l5.213 4.609 7.965-11.945c.261-.433.716-.673 1.185-.624s.876.38 1.058.86.112 1.03-.184 1.436"/><rect width="56" height="56" x="199.142" y="317" fill="#1574E5" rx="28"/><rect width="32" height="32" x="211.142" y="329" fill="#E8F1FC" rx="16"/><path fill="#093160" d="m234.857 339.302-8.755 13.129c-.208.306-.52.507-.864.557a1.2 1.2 0 0 1-.965-.291l-6.251-5.524c-.552-.488-.641-1.377-.2-1.987.442-.61 1.247-.709 1.798-.221l5.214 4.61 7.964-11.945c.261-.433.717-.673 1.186-.624s.875.38 1.057.859c.183.48.112 1.032-.184 1.437"/><rect width="56" height="56" x="837.056" y="61" fill="#1574E5" rx="28"/><rect width="32" height="32" x="849.056" y="73" fill="#E8F1FC" rx="16"/><path fill="#093160" d="m872.771 83.302-8.755 13.13c-.208.305-.52.506-.864.556a1.2 1.2 0 0 1-.965-.291l-6.251-5.524c-.552-.488-.641-1.377-.2-1.987.442-.61 1.247-.709 1.798-.22l5.214 4.609 7.964-11.945c.261-.433.717-.673 1.186-.624s.875.38 1.057.86c.183.48.112 1.03-.184 1.436"/></svg>
